remix/Business/mail-settings-line.svg

<svg viewBox="0 0 24 24" fill="currentColor" xmlns="http://www.w3.org/2000/svg"><path d="M20 7.23792L12.0718 14.338L4 7.21594V19H14V21H3C2.44772 21 2 20.5523 2 20V4C2 3.44772 2.44772 3 3 3H21C21.5523 3 22 3.44772 22 4V13H20V7.23792ZM19.501 5H4.51146L12.0619 11.662L19.501 5ZM17.05 19.5485C17.0172 19.3706 17 19.1873 17 19C17 18.8127 17.0172 18.6294 17.05 18.4515L16.0359 17.866L17.0359 16.134L18.0505 16.7197C18.3278 16.4824 18.6489 16.2948 19 16.1707V15H21V16.1707C21.3511 16.2948 21.6722 16.4824 21.9495 16.7197L22.9641 16.134L23.9641 17.866L22.95 18.4515C22.9828 18.6294 23 18.8127 23 19C23 19.1873 22.9828 19.3706 22.95 19.5485L23.9641 20.134L22.9641 21.866L21.9495 21.2803C21.6722 21.5176 21.3511 21.7052 21 21.8293V23H19V21.8293C18.6489 21.7052 18.3278 21.5176 18.0505 21.2803L17.0359 21.866L16.0359 20.134L17.05 19.5485ZM20 20C20.5523 20 21 19.5523 21 19C21 18.4477 20.5523 18 20 18C19.4477 18 19 18.4477 19 19C19 19.5523 19.4477 20 20 20Z"/></svg>

<svg viewBox="0 0 24 24" xmlns="http://www.w3.org/2000/svg"><path fill="none" d="M0 0h24v24H0Z"/><path d="M20 7.238l-7.93 7.1L3.99 7.2v11.78h10v2h-11v0c-.56 0-1-.45-1-1v-16 0c0-.56.44-1 1-1h18v0c.55 0 1 .44 1 1v9h-2V7.226Zm-.5-2.24H4.51l7.55 6.66 7.44-6.67Zm-2.46 14.54v0c-.07-.37-.07-.74 0-1.096l-1.02-.59 1-1.74 1.01.58c.27-.24.59-.43.95-.55v-1.17h2v1.17c.35.125.67.31.95.55l1.01-.59 1 1.73 -1.02.58v0c.06.36.06.73 0 1.096l1.01.58 -1 1.73 -1.02-.59v0c-.29.24-.61.42-.95.55v1.17h-2v-1.17l-.001 0c-.35-.13-.67-.31-.95-.55l-1.02.58 -1-1.74 1.01-.59Zm2.95.45v0c.55 0 1-.45 1-1 0-.56-.45-1-1-1v0c-.56 0-1 .44-1 1 0 .55.44 1 1 1Z"/></svg>
